!!!OTL: 207. Der schwere Traum.
!!!ARE: Europa, Mitteleuropa, Deutschland
!!!SCT: E0207
!!!TXL: @@DE
!!!YEM: Copyright 1995, estate of Helmut Schaffrath.
**kern	**text
*ICvox	*
*M6/8	*
*k[f#]	*
*e:	*
!LO:TX:a:t=Langſam, klagend.	!
!LO:TX:a:t=Volksweiſe vor 1775.	!
{8B	Jch
=1	=1
4e	hab
8f#	die
8.gL	Nacht
16f#J	.
8e	ge-
=2	=2
4.b	-träu-
4a}	-met
{8a	wol
=3	=3
8.gL	ei-
16f#J	.
8e	-nen
4d#	ſchwe-
8e	-ren
=4	=4
4.f#	Traum,
4r}	.
{8e	es
=5	=5
4b	wuchs
8b	in
8.gL	mei-
16f#J	.
8e	-nem
=6	=6
4.ee	Gar-
4cc}	-ten
{8a	ein
=7	=7
8.gL	Ros-
16f#J	.
8e	-ma-
8.f#L	-ri-
16eJ	.
8d#	-en-
=8	=8
4.e	-baum.
4r}	.
==	==
!!!Ag: erzaehlendes Volks - Lied, Todes - Ahnung
!!!ONB: ESAC (Essen Associative Code) Database: ERK1
!!!AMT: compound duple
!!!AIN: vox
!!!EED: Helmut Schaffrath
!!!EEV: 1.0
!!!GTL: Todtensagen (Todesahnung, Geisterliebe, Grabesstimmen)
!!!URL-scan: https://rosdok.uni-rostock.de/mcrviewer/recordIdentifier/rosdok_ppn745146120/iview2/phys_0682.iview2?x=-401.4153369901496&y=1633.6796554373577&scale=0.4895165665220185&rotation=0&layout=singlePageLayout
!!!ENC: Anna Maria Matuszewska
!!!EEV: 2024/06/12
*-	*-
